frontend/static/icons/arrow-right.svg

<svg width="21" height="16" viewBox="0 0 21 16" fill="none" 
    xmlns="http://www.w3.org/2000/svg" class="icon">
    <path d="M20.7071 8.70711C21.0976 8.31658 21.0976 7.68342 20.7071 7.2929L14.3431 0.928933C13.9526 0.538409 13.3195 0.538409 12.9289 0.928933C12.5384 1.31946 12.5384 1.95262 12.9289 2.34315L18.5858 8L12.9289 13.6569C12.5384 14.0474 12.5384 14.6805 12.9289 15.0711C13.3195 15.4616 13.9526 15.4616 14.3431 15.0711L20.7071 8.70711ZM-8.74228e-08 9L20 9L20 7L8.74228e-08 7L-8.74228e-08 9Z" fill="#25A6DA" />
</svg>

<?xml version="1.0" encoding="iso-8859-1"?>
<!-- Generator: Adobe Illustrator 24.1.2, SVG Export Plug-In . SVG Version: 6.00 Build 0)  -->
<svg version="1.1" id="Layer_1" xmlns="http://www.w3.org/2000/svg" xmlns:xlink="http://www.w3.org/1999/xlink" x="0px" y="0px"
	 viewBox="0 0 21 16" style="enable-background:new 0 0 21 16;" xml:space="preserve">
<path style="fill:#25A6DA;" d="M20.707,8.707c0.391-0.391,0.391-1.024,0-1.414l-6.364-6.364c-0.391-0.391-1.024-0.391-1.414,0
	c-0.391,0.391-0.391,1.024,0,1.414L18.586,8l-5.657,5.657c-0.391,0.391-0.391,1.024,0,1.414c0.391,0.391,1.024,0.391,1.414,0
	L20.707,8.707z M0,9h20V7H0L0,9z"/>
</svg>
